X:568
T:Black Haired Lass
O:England
M:C
L:1/8
S:Martin Hayes
N:Martin does it in a non-trad key; originally, it was in A major.
K:G dor
B2 GA BcdB|c2 fc AcFA|BAGA BcdB|cAdB G2 GA|
BAGA BcdB|cefc AcFA|BAGA BcdB|cAdB G2 GA||
Bcde f2 df|e2 ce fedc|Bcde fagf|ecdB G2 GA|
Bcde f2 df|ecc=B cdef|gefd ecdB|cAdB G2||


